Breeze Round Light/devices/16/drive-harddisk.svg

<svg viewBox="0 0 16 16" xmlns="http://www.w3.org/2000/svg">
    <defs id="defs1">
        <style type="text/css" id="current-color-scheme">.ColorScheme-Text {color:#eff0f1;}</style>
    </defs>
    <path style="fill:currentColor;fill-opacity:1;stroke:none"
        d="m 3,4 v 8 c 0,0 0,2 2.008063,2 C 7.0161261,14 9,14 11,14 c 2,0 2,-2 2,-2 V 4 C 13,4 13,2 11,2 9,2 7,2 5,2 3,2 3,4 3,4 Z M 6,3 h 4 c 1.104569,0 2,0.8954305 2,2 v 1 c -1.333333,0 -1.333333,2 0,2 v 2 l -1,1 H 5 L 4,10 V 8 C 5.3333328,8 5.3333328,6 4,6 V 5 C 4,3.8954305 4.8954305,3 6,3 Z m -2,9 h 4 v 1 H 4 Z m 6,0 h 2 v 1 h -2 z"
        class="ColorScheme-Text"/>
</svg>

<svg xmlns="http://www.w3.org/2000/svg" viewBox="0 0 16 16">
  <style
     type="text/css"
     id="current-color-scheme">
        .ColorScheme-Text {
            color:#232629;
        }
    </style>
  <path
     style="fill:currentColor;fill-opacity:1"
     d="M 6 2 C 4.338 2 3 3.338 3 5 L 3 8 L 3 11 L 3 14 L 6 14 L 10 14 L 13 14 L 13 11 L 13 8 L 13 5 C 13 3.338 11.662 2 10 2 L 6 2 z M 6 3 L 10 3 A 2 2 0 0 1 12 5 L 12 6 A 1 1 0 0 0 12 8 L 12 10 L 11 11 L 5 11 L 4 10 L 4 8 A 1 1 0 0 0 4 6 L 4 5 A 2 2 0 0 1 6 3 z M 4 12 L 8 12 L 8 13 L 4 13 L 4 12 z M 10 12 L 12 12 L 12 13 L 10 13 L 10 12 z "
     class="ColorScheme-Text"/>
</svg>
